; generated by PrusaSlicer 2.5.0+win64 on 2022-10-19 at 15:32:54 UTC

; 

; external perimeters extrusion width = 0.45mm
; perimeters extrusion width = 0.45mm
; infill extrusion width = 0.45mm
; solid infill extrusion width = 0.45mm
; top infill extrusion width = 0.40mm
; first layer extrusion width = 0.42mm

M107
;TYPE:Custom
G90 ; use absolute coordinates
M83 ; extruder relative mode
M140 S60 ; set final bed temp
M104 S150 ; set temporary nozzle temp to prevent oozing during homing
G4 S10 ; allow partial nozzle warmup
G28 ; home all axis
G1 Z50 F240
G1 X2 Y10 F3000
M104 S210 ; set final nozzle temp
M190 S60 ; wait for bed temp to stabilize
M109 S210 ; wait for nozzle temp to stabilize
G1 Z0.28 F240
G92 E0
G1 Y140 E10 F1500 ; prime the nozzle
G1 X2.3 F5000
G92 E0
G1 Y10 E10 F1200 ; prime the nozzle
G92 E0
G21 ; set units to millimeters
G90 ; use absolute coordinates
M83 ; use relative distances for extrusion
; Filament gcode
M107
;LAYER_CHANGE
;Z:0.2
;HEIGHT:0.2
;BEFORE_LAYER_CHANGE
G92 E0
;0.2


G1 E-5 F3600
G1 Z.2 F9000
;AFTER_LAYER_CHANGE
;0.2
G1 X63.155 Y46.797
G1 E5 F2400
M204 S500
;TYPE:Skirt/Brim
;WIDTH:0.42
G1 F1200
G1 X64.09 Y45.862 E.04144
G1 X65.713 Y44.779 E.06118
G1 X66.927 Y44.276 E.04123
G1 X69.5 Y43.83 E.08187
G1 X76.5 Y43.83 E.21948
G1 X77.16 Y43.895 E.02078
G1 X79.073 Y44.276 E.06116
G1 X80.067 Y44.644 E.03324
G1 X169.164 Y94.7 E3.20428
G1 X170.991 Y95.883 E.06823
G1 X171.761 Y96.677 E.03467
G1 X172.659 Y97.904 E.04767
G1 X173.179 Y98.865 E.03425
G1 X173.761 Y100.965 E.06835
G1 X173.856 Y101.632 E.02111
G1 X173.838 Y102.722 E.03419
G1 X173.441 Y104.867 E.0684
G1 X173.007 Y105.871 E.03431
G1 X171.917 Y107.592 E.06385
G1 X107.638 Y184.196 E3.13542
G1 X105.644 Y185.88 E.08183
G1 X104.477 Y186.488 E.04127
G1 X102.615 Y187.031 E.06081
G1 X101.305 Y187.147 E.04122
G1 X99.355 Y186.937 E.0615
G1 X98.096 Y186.541 E.04139
G1 X96.388 Y185.606 E.06104
G1 X95.377 Y184.758 E.04138
G1 X94.161 Y183.243 E.06091
G1 X93.734 Y182.556 E.02536
G1 X57.82 Y105.547 E2.66423
G1 X57.569 Y104.78 E.02533
G1 X57.188 Y102.867 E.06116
G1 X57.134 Y101.938 E.02918
G1 X61.134 Y51.938 E1.57272
G1 X61.569 Y49.634 E.0735
G1 X62.072 Y48.42 E.04122
G1 X63.122 Y46.846 E.0593
G1 E-3.5 F3600
;WIPE_START
G1 F7200
G1 X64.09 Y45.862 E-.65581
G1 X65.437 Y44.963 E-.76919
;WIPE_END
G1 E-.075 F3600
G1 X73.402 Y56.357 F9000
G1 E5 F2400
;TYPE:Perimeter
;WIDTH:0.419999
G1 F1200
G1 X73.256 Y56.492 E.00624
G1 X73.115 Y56.729 E.00866
G1 X73.048 Y57.01 E.00906
G1 X69.829 Y97.253 E1.26582
G1 X69.86 Y97.579 E.01025
G1 X69.989 Y97.858 E.00967
G1 X70.183 Y98.067 E.00892
G1 X70.45 Y98.216 E.00958
G1 X70.768 Y98.271 E.01015
G1 X165.395 Y98.271 E2.96695
G1 X166.122 Y98.412 E.02321
G1 X166.65 Y98.47 E.01665
G1 X167.022 Y98.606 E.01242
G1 X167.53 Y98.941 E.01907
G1 X167.994 Y99.196 E.0166
G1 X168.285 Y99.463 E.01239
G1 X168.629 Y99.971 E.01925
G1 X168.954 Y100.377 E.01631
G1 X169.122 Y100.737 E.01245
G1 X169.244 Y101.332 E.01903
G1 X169.397 Y101.893 E.01823
G1 X169.41 Y102.232 E.01065
G1 X169.295 Y102.829 E.01906
G1 X169.237 Y103.357 E.01665
G1 X169.101 Y103.729 E.01242
G1 X168.766 Y104.238 E.01911
G1 X168.448 Y104.817 E.02072
G1 X104.303 Y181.261 E3.12886
G1 X103.029 Y182.284 E.05124
G1 X101.563 Y182.712 E.04789
G1 X100.044 Y182.544 E.0479
G1 X98.704 Y181.811 E.04789
G1 X97.749 Y180.619 E.04788
G1 X97.321 Y179.152 E.04791
G1 X97.488 Y177.634 E.04788
G1 X98.274 Y176.202 E.05124
G1 X155.643 Y107.832 E2.79839
G1 X155.73 Y107.71 E.00469
G1 X155.839 Y107.44 E.00913
G1 X155.846 Y107.045 E.01239
G1 X155.657 Y106.59 E.01544
G1 X155.401 Y106.317 E.01175
G1 X155.148 Y106.189 E.00886
G1 X154.855 Y106.143 E.0093
G1 X65.605 Y106.143 E2.79838
G1 X64.002 Y105.824 E.05125
G1 X62.731 Y104.976 E.0479
G1 X61.883 Y103.705 E.0479
G1 X61.573 Y102.144 E.0499
G1 X65.556 Y52.354 E1.56613
G1 X65.883 Y50.709 E.05259
G1 X66.731 Y49.438 E.0479
G1 X68.002 Y48.59 E.0479
G1 X69.605 Y48.271 E.05125
G1 X76.395 Y48.271 E.2129
G1 X77.998 Y48.59 E.05125
G1 X79.269 Y49.438 E.0479
G1 X80.117 Y50.709 E.0479
G1 X80.415 Y52.207 E.04789
G1 X80.117 Y53.705 E.04789
G1 X79.269 Y54.976 E.0479
G1 X77.998 Y55.824 E.0479
G1 X76.395 Y56.143 E.05125
G1 X73.988 Y56.143 E.07548
G1 X73.702 Y56.187 E.00907
G1 X73.446 Y56.316 E.00898
G1 X73.951 Y56.523 F9000
G1 F1200
G1 X73.901 Y56.527 E.00158
G1 X73.668 Y56.619 E.00786
G1 X73.502 Y56.796 E.00759
G1 X73.424 Y57.04 E.00804
G1 X70.205 Y97.283 E1.26582
G1 X70.205 Y97.381 E.00308
G1 X70.301 Y97.646 E.00883
G1 X70.492 Y97.822 E.00813
G1 X70.768 Y97.894 E.00897
G1 X165.432 Y97.894 E2.96811
G1 X166.163 Y98.037 E.02336
G1 X166.691 Y98.096 E.01665
G1 X167.231 Y98.292 E.01802
G1 X167.712 Y98.61 E.01808
G1 X168.176 Y98.865 E.01659
G1 X168.599 Y99.253 E.01801
G1 X168.923 Y99.735 E.01823
G1 X169.249 Y100.142 E.01631
G1 X169.492 Y100.664 E.01807
G1 X169.605 Y101.222 E.01786
G1 X169.754 Y101.732 E.01665
G1 X169.78 Y102.306 E.01802
G1 X169.67 Y102.87 E.01804
G1 X169.611 Y103.398 E.01665
G1 X169.415 Y103.938 E.01802
G1 X169.096 Y104.42 E.0181
G1 X168.76 Y105.031 E.02188
G1 X104.568 Y181.532 E3.13118
G1 X103.206 Y182.625 E.05475
G1 X101.596 Y183.095 E.0526
G1 X99.929 Y182.911 E.0526
G1 X98.457 Y182.105 E.0526
G1 X97.408 Y180.797 E.05259
G1 X96.938 Y179.186 E.05261
G1 X97.121 Y177.519 E.05259
G1 X97.961 Y175.988 E.05475
G1 X155.354 Y107.589 E2.79955
G1 X155.406 Y107.516 E.00282
G1 X155.485 Y107.272 E.00805
G1 X155.458 Y107.048 E.00705
G1 X155.295 Y106.73 E.0112
G1 X155.111 Y106.581 E.00744
G1 X154.855 Y106.52 E.00824
G1 X65.568 Y106.52 E2.79955
G1 X63.855 Y106.179 E.05476
G1 X62.459 Y105.248 E.0526
G1 X61.528 Y103.852 E.0526
G1 X61.193 Y102.167 E.05389
G1 X65.182 Y52.302 E1.56847
G1 X65.528 Y50.562 E.05562
G1 X66.459 Y49.166 E.0526
G1 X67.855 Y48.235 E.0526
G1 X69.568 Y47.894 E.05476
G1 X76.432 Y47.894 E.21523
G1 X78.145 Y48.235 E.05476
G1 X79.541 Y49.166 E.0526
G1 X80.472 Y50.562 E.0526
G1 X80.799 Y52.207 E.05259
G1 X80.472 Y53.852 E.05259
G1 X79.541 Y55.248 E.0526
G1 X78.145 Y56.179 E.0526
G1 X76.432 Y56.52 E.05476
G1 X74.011 Y56.52 E.07592
G1 X73.988 Y56.897 F9000
;TYPE:External perimeter
G1 F1200
G1 X73.881 Y56.93 E.00351
G1 X73.8 Y57.071 E.00508
G1 X70.58 Y97.313 E1.26582
G1 X70.63 Y97.457 E.00476
G1 X70.768 Y97.517 E.00472
G1 X165.469 Y97.517 E2.96928
G1 X166.205 Y97.663 E.0235
G1 X166.909 Y97.74 E.02221
G1 X167.064 Y97.826 E.00556
G1 X167.292 Y97.88 E.00735
G1 X167.894 Y98.28 E.02266
G1 X168.511 Y98.619 E.02208
G1 X168.621 Y98.756 E.00551
G1 X168.812 Y98.894 E.0074
G1 X169.218 Y99.5 E.02284
G1 X169.654 Y100.044 E.02187
G1 X169.704 Y100.214 E.00556
G1 X169.827 Y100.415 E.00738
G1 X169.967 Y101.116 E.02243
G1 X170.167 Y101.798 E.02229
G1 X170.147 Y101.977 E.00564
G1 X170.184 Y102.207 E.00731
G1 X170.044 Y102.912 E.02252
G1 X169.967 Y103.616 E.02221
G1 X169.881 Y103.771 E.00556
G1 X169.827 Y103.999 E.00735
G1 X169.427 Y104.601 E.02266
G1 X169.073 Y105.245 E.02304
G1 X104.833 Y181.802 E3.13351
G1 X103.384 Y182.966 E.05827
G1 X101.629 Y183.478 E.05731
G1 X99.813 Y183.278 E.0573
G1 X98.21 Y182.4 E.0573
G1 X97.067 Y180.974 E.05729
G1 X96.555 Y179.219 E.05731
G1 X96.754 Y177.403 E.05729
G1 X97.648 Y175.774 E.05826
G1 X155.065 Y107.347 E2.80072
G1 X155.109 Y107.241 E.00359
G1 X155.002 Y106.967 E.00922
G1 X154.855 Y106.897 E.0051
G1 X65.531 Y106.897 E2.80071
G1 X63.708 Y106.534 E.05827
G1 X62.188 Y105.519 E.05731
G1 X61.173 Y103.999 E.05731
G1 X60.812 Y102.189 E.05788
G1 X64.808 Y52.25 E1.5708
G1 X65.173 Y50.415 E.05866
G1 X66.188 Y48.895 E.05731
G1 X67.708 Y47.88 E.05731
G1 X69.531 Y47.517 E.05827
G1 X76.469 Y47.517 E.21756
G1 X78.292 Y47.88 E.05827
G1 X79.812 Y48.895 E.05731
G1 X80.827 Y50.415 E.05731
G1 X81.184 Y52.207 E.05729
G1 X80.827 Y53.999 E.05729
G1 X79.812 Y55.519 E.05731
G1 X78.292 Y56.534 E.05731
G1 X76.469 Y56.897 E.05827
G1 X74.048 Y56.897 E.07593
G1 X73.911 Y56.815 F9000
G1 E-3.5 F3600
;WIPE_START
G1 F7200
G1 X73.881 Y56.93 E-.08077
G1 X73.8 Y57.071 E-.07701
G1 X73.587 Y59.73 E-1.26722
;WIPE_END
G1 E-.075 F3600
G1 X166.455 Y98.562 F9000
G1 E5 F2400
;TYPE:Solid infill
;WIDTH:0.420535
G1 F1200
G1 X168.885 Y100.993 E.10791
G1 X168.958 Y101.355 E.01161
G1 X169.058 Y101.7 E.01127
G1 X166.045 Y98.687 E.13377
G1 X165.381 Y98.557 E.02127
G1 X169.111 Y102.287 E.16564
G1 X169.023 Y102.733 E.01428
G1 X164.844 Y98.554 E.18557
G1 X164.31 Y98.554 E.01677
G1 X168.968 Y103.212 E.20684
G1 X168.958 Y103.307 E.00299
G1 X168.837 Y103.615 E.01039
G1 X163.776 Y98.554 E.22473
G1 X163.242 Y98.554 E.01677
G1 X168.624 Y103.936 E.23899
G1 X168.426 Y104.271 E.01224
G1 X162.708 Y98.554 E.25388
G1 X162.174 Y98.554 E.01677
G1 X168.236 Y104.616 E.26917
G1 X167.998 Y104.912 E.01193
G1 X161.64 Y98.554 E.28235
G1 X161.106 Y98.554 E.01677
G1 X167.755 Y105.203 E.29524
G1 X167.511 Y105.493 E.0119
G1 X160.572 Y98.554 E.30813
G1 X160.038 Y98.554 E.01677
G1 X167.267 Y105.784 E.32103
G1 X167.024 Y106.074 E.0119
G1 X159.504 Y98.554 E.33392
G1 X158.97 Y98.554 E.01677
G1 X166.78 Y106.364 E.34682
G1 X166.536 Y106.655 E.0119
G1 X158.436 Y98.554 E.35971
G1 X157.902 Y98.554 E.01677
G1 X166.293 Y106.945 E.3726
G1 X166.049 Y107.235 E.0119
G1 X157.368 Y98.554 E.3855
G1 X156.834 Y98.554 E.01677
G1 X165.806 Y107.526 E.39839
G1 X165.562 Y107.816 E.0119
G1 X156.3 Y98.554 E.41128
G1 X155.766 Y98.554 E.01677
G1 X165.318 Y108.107 E.42418
G1 X165.075 Y108.397 E.0119
G1 X155.232 Y98.554 E.43707
G1 X154.698 Y98.554 E.01677
G1 X164.831 Y108.687 E.44997
G1 X164.587 Y108.978 E.0119
G1 X154.164 Y98.554 E.46286
G1 X153.63 Y98.554 E.01677
G1 X164.344 Y109.268 E.47575
G1 X164.1 Y109.558 E.0119
G1 X153.095 Y98.554 E.48865
G1 X152.561 Y98.554 E.01677
G1 X163.856 Y109.849 E.50154
G1 X163.613 Y110.139 E.0119
G1 X152.027 Y98.554 E.51444
G1 X151.493 Y98.554 E.01677
G1 X163.369 Y110.43 E.52733
G1 X163.125 Y110.72 E.0119
G1 X150.959 Y98.554 E.54022
G1 X150.425 Y98.554 E.01677
G1 X162.882 Y111.01 E.55312
G1 X162.638 Y111.301 E.0119
G1 X149.891 Y98.554 E.56601
G1 X149.357 Y98.554 E.01677
G1 X162.394 Y111.591 E.57891
G1 X162.151 Y111.881 E.0119
G1 X148.823 Y98.554 E.5918
G1 X148.289 Y98.554 E.01677
G1 X161.907 Y112.172 E.60469
G1 X161.663 Y112.462 E.0119
G1 X156.1 Y106.898 E.24706
G1 X155.964 Y106.564 E.01134
G1 X155.811 Y106.317 E.00911
G1 X155.695 Y106.193 E.00534
G1 X155.412 Y105.993 E.01087
G1 X155.236 Y105.92 E.00599
G1 X155.085 Y105.884 E.00488
G1 X147.755 Y98.554 E.32548
G1 X147.221 Y98.554 E.01677
G1 X154.527 Y105.86 E.32442
G1 X153.993 Y105.86 E.01677
G1 X146.687 Y98.554 E.32442
G1 X146.153 Y98.554 E.01677
G1 X153.459 Y105.86 E.32442
G1 X152.925 Y105.86 E.01677
G1 X145.619 Y98.554 E.32442
G1 X145.085 Y98.554 E.01677
G1 X152.391 Y105.86 E.32442
G1 X151.857 Y105.86 E.01677
G1 X144.551 Y98.554 E.32442
G1 X144.017 Y98.554 E.01677
G1 X151.323 Y105.86 E.32442
G1 X150.789 Y105.86 E.01677
G1 X143.483 Y98.554 E.32442
G1 X142.949 Y98.554 E.01677
G1 X150.255 Y105.86 E.32442
G1 X149.721 Y105.86 E.01677
G1 X142.415 Y98.554 E.32442
G1 X141.881 Y98.554 E.01677
G1 X149.187 Y105.86 E.32442
G1 X148.653 Y105.86 E.01677
G1 X141.347 Y98.554 E.32442
G1 X140.813 Y98.554 E.01677
G1 X148.119 Y105.86 E.32442
G1 X147.585 Y105.86 E.01677
G1 X140.279 Y98.554 E.32442
G1 X139.745 Y98.554 E.01677
G1 X147.051 Y105.86 E.32442
G1 X146.517 Y105.86 E.01677
G1 X139.211 Y98.554 E.32442
G1 X138.677 Y98.554 E.01677
G1 X145.983 Y105.86 E.32442
G1 X145.449 Y105.86 E.01677
G1 X138.143 Y98.554 E.32442
G1 X137.609 Y98.554 E.01677
G1 X144.915 Y105.86 E.32442
G1 X144.381 Y105.86 E.01677
G1 X137.075 Y98.554 E.32442
G1 X136.541 Y98.554 E.01677
G1 X143.847 Y105.86 E.32442
G1 X143.313 Y105.86 E.01677
G1 X136.007 Y98.554 E.32442
G1 X135.473 Y98.554 E.01677
G1 X142.779 Y105.86 E.32442
G1 X142.245 Y105.86 E.01677
G1 X134.939 Y98.554 E.32442
G1 X134.405 Y98.554 E.01677
G1 X141.711 Y105.86 E.32442
G1 X141.177 Y105.86 E.01677
G1 X133.87 Y98.554 E.32442
G1 X133.336 Y98.554 E.01677
G1 X140.643 Y105.86 E.32442
G1 X140.109 Y105.86 E.01677
G1 X132.802 Y98.554 E.32442
G1 X132.268 Y98.554 E.01677
G1 X139.574 Y105.86 E.32442
G1 X139.04 Y105.86 E.01677
G1 X131.734 Y98.554 E.32442
G1 X131.2 Y98.554 E.01677
G1 X138.506 Y105.86 E.32442
G1 X137.972 Y105.86 E.01677
G1 X130.666 Y98.554 E.32442
G1 X130.132 Y98.554 E.01677
G1 X137.438 Y105.86 E.32442
G1 X136.904 Y105.86 E.01677
G1 X129.598 Y98.554 E.32442
G1 X129.064 Y98.554 E.01677
G1 X136.37 Y105.86 E.32442
G1 X135.836 Y105.86 E.01677
G1 X128.53 Y98.554 E.32442
G1 X127.996 Y98.554 E.01677
G1 X135.302 Y105.86 E.32442
G1 X134.768 Y105.86 E.01677
G1 X127.462 Y98.554 E.32442
G1 X126.928 Y98.554 E.01677
G1 X134.234 Y105.86 E.32442
G1 X133.7 Y105.86 E.01677
G1 X126.394 Y98.554 E.32442
G1 X125.86 Y98.554 E.01677
G1 X133.166 Y105.86 E.32442
G1 X132.632 Y105.86 E.01677
G1 X125.326 Y98.554 E.32442
G1 X124.792 Y98.554 E.01677
G1 X132.098 Y105.86 E.32442
G1 X131.564 Y105.86 E.01677
G1 X124.258 Y98.554 E.32442
G1 X123.724 Y98.554 E.01677
G1 X131.03 Y105.86 E.32442
G1 X130.496 Y105.86 E.01677
G1 X123.19 Y98.554 E.32442
G1 X122.656 Y98.554 E.01677
G1 X129.962 Y105.86 E.32442
G1 X129.428 Y105.86 E.01677
G1 X122.122 Y98.554 E.32442
G1 X121.588 Y98.554 E.01677
G1 X128.894 Y105.86 E.32442
G1 X128.36 Y105.86 E.01677
G1 X121.054 Y98.554 E.32442
G1 X120.52 Y98.554 E.01677
G1 X127.826 Y105.86 E.32442
G1 X127.292 Y105.86 E.01677
G1 X119.986 Y98.554 E.32442
G1 X119.452 Y98.554 E.01677
G1 X126.758 Y105.86 E.32442
G1 X126.224 Y105.86 E.01677
G1 X118.918 Y98.554 E.32442
G1 X118.384 Y98.554 E.01677
G1 X125.69 Y105.86 E.32442
G1 X125.156 Y105.86 E.01677
G1 X117.85 Y98.554 E.32442
G1 X117.316 Y98.554 E.01677
G1 X124.622 Y105.86 E.32442
G1 X124.088 Y105.86 E.01677
G1 X116.782 Y98.554 E.32442
G1 X116.248 Y98.554 E.01677
G1 X123.554 Y105.86 E.32442
G1 X123.02 Y105.86 E.01677
G1 X115.714 Y98.554 E.32442
G1 X115.179 Y98.554 E.01677
G1 X122.486 Y105.86 E.32442
G1 X121.952 Y105.86 E.01677
G1 X114.645 Y98.554 E.32442
G1 X114.111 Y98.554 E.01677
G1 X121.418 Y105.86 E.32442
G1 X120.883 Y105.86 E.01677
G1 X113.577 Y98.554 E.32442
G1 X113.043 Y98.554 E.01677
G1 X120.349 Y105.86 E.32442
G1 X119.815 Y105.86 E.01677
G1 X112.509 Y98.554 E.32442
G1 X111.975 Y98.554 E.01677
G1 X119.281 Y105.86 E.32442
G1 X118.747 Y105.86 E.01677
G1 X111.441 Y98.554 E.32442
G1 X110.907 Y98.554 E.01677
G1 X118.213 Y105.86 E.32442
G1 X117.679 Y105.86 E.01677
G1 X110.373 Y98.554 E.32442
G1 X109.839 Y98.554 E.01677
G1 X117.145 Y105.86 E.32442
G1 X116.611 Y105.86 E.01677
G1 X109.305 Y98.554 E.32442
G1 X108.771 Y98.554 E.01677
G1 X116.077 Y105.86 E.32442
G1 X115.543 Y105.86 E.01677
G1 X108.237 Y98.554 E.32442
G1 X107.703 Y98.554 E.01677
G1 X115.009 Y105.86 E.32442
G1 X114.475 Y105.86 E.01677
G1 X107.169 Y98.554 E.32442
G1 X106.635 Y98.554 E.01677
G1 X113.941 Y105.86 E.32442
G1 X113.407 Y105.86 E.01677
G1 X106.101 Y98.554 E.32442
G1 X105.567 Y98.554 E.01677
G1 X112.873 Y105.86 E.32442
G1 X112.339 Y105.86 E.01677
G1 X105.033 Y98.554 E.32442
G1 X104.499 Y98.554 E.01677
G1 X111.805 Y105.86 E.32442
G1 X111.271 Y105.86 E.01677
G1 X103.965 Y98.554 E.32442
G1 X103.431 Y98.554 E.01677
G1 X110.737 Y105.86 E.32442
G1 X110.203 Y105.86 E.01677
G1 X102.897 Y98.554 E.32442
G1 X102.363 Y98.554 E.01677
G1 X109.669 Y105.86 E.32442
G1 X109.135 Y105.86 E.01677
G1 X101.829 Y98.554 E.32442
G1 X101.295 Y98.554 E.01677
G1 X108.601 Y105.86 E.32442
G1 X108.067 Y105.86 E.01677
G1 X100.761 Y98.554 E.32442
G1 X100.227 Y98.554 E.01677
G1 X107.533 Y105.86 E.32442
G1 X106.999 Y105.86 E.01677
G1 X99.693 Y98.554 E.32442
G1 X99.159 Y98.554 E.01677
G1 X106.465 Y105.86 E.32442
G1 X105.931 Y105.86 E.01677
G1 X98.625 Y98.554 E.32442
G1 X98.091 Y98.554 E.01677
G1 X105.397 Y105.86 E.32442
G1 X104.863 Y105.86 E.01677
G1 X97.557 Y98.554 E.32442
G1 X97.023 Y98.554 E.01677
G1 X104.329 Y105.86 E.32442
G1 X103.795 Y105.86 E.01677
G1 X96.489 Y98.554 E.32442
G1 X95.954 Y98.554 E.01677
G1 X103.261 Y105.86 E.32442
G1 X102.727 Y105.86 E.01677
G1 X95.42 Y98.554 E.32442
G1 X94.886 Y98.554 E.01677
G1 X102.193 Y105.86 E.32442
G1 X101.658 Y105.86 E.01677
G1 X94.352 Y98.554 E.32442
G1 X93.818 Y98.554 E.01677
G1 X101.124 Y105.86 E.32442
G1 X100.59 Y105.86 E.01677
G1 X93.284 Y98.554 E.32442
G1 X92.75 Y98.554 E.01677
G1 X100.056 Y105.86 E.32442
